dist/img/svg/warranty-icon.svg

<svg width="60" height="60" viewBox="0 0 60 60" fill="none" xmlns="http://www.w3.org/2000/svg">
<path d="M57.5569 23.5134L45 18.1322V7.5C44.9999 7.25138 44.9011 7.01296 44.7253 6.83719L40.0378 2.14969C39.862 1.97386 39.6236 1.87505 39.375 1.875H4.6875C3.94158 1.875 3.22621 2.17132 2.69876 2.69876C2.17132 3.22621 1.875 3.94158 1.875 4.6875V55.3125C1.875 56.0584 2.17132 56.7738 2.69876 57.3012C3.22621 57.8287 3.94158 58.125 4.6875 58.125H42.1875C42.9334 58.125 43.6488 57.8287 44.1762 57.3012C44.7037 56.7738 45 56.0584 45 55.3125V52.9819L49.8806 49.5C52.4289 47.676 54.5059 45.2712 55.9396 42.4846C57.3733 39.6981 58.1225 36.61 58.125 33.4762V24.375C58.125 24.1916 58.0711 24.0122 57.9702 23.859C57.8692 23.7059 57.7255 23.5857 57.5569 23.5134ZM43.125 7.88812V8.4375H38.4375V3.75H38.9869L43.125 7.88812ZM42.1875 56.25H4.6875C4.43886 56.25 4.2004 56.1512 4.02459 55.9754C3.84877 55.7996 3.75 55.5611 3.75 55.3125V4.6875C3.75 4.43886 3.84877 4.2004 4.02459 4.02459C4.2004 3.84877 4.43886 3.75 4.6875 3.75H36.5625V9.375C36.5625 9.62364 36.6613 9.8621 36.8371 10.0379C37.0129 10.2137 37.2514 10.3125 37.5 10.3125H43.125V18.1322L30.5681 23.5134C30.3995 23.5857 30.2558 23.7059 30.1548 23.859C30.0539 24.0122 30 24.1916 30 24.375V33.4762C30.0025 36.61 30.7517 39.6981 32.1854 42.4846C33.6191 45.2712 35.6961 47.676 38.2444 49.5L43.125 52.9819V55.3125C43.125 55.5611 43.0262 55.7996 42.8504 55.9754C42.6746 56.1512 42.4361 56.25 42.1875 56.25ZM56.25 33.4762C56.2472 36.311 55.5692 39.1043 54.2722 41.6249C52.9751 44.1455 51.0963 46.3209 48.7912 47.9709L44.0625 51.3478L39.3338 47.9728C37.0285 46.3226 35.1495 44.1469 33.8524 41.626C32.5553 39.105 31.8775 36.3113 31.875 33.4762V24.9928L44.0625 19.77L56.25 24.9928V33.4762Z" fill="#2F3235"/>
<path d="M43.7138 22.5665L34.3388 26.3165C34.1649 26.3862 34.0158 26.5065 33.9109 26.6617C33.8059 26.817 33.7499 27.0001 33.75 27.1875V33.1031C33.7445 35.4942 34.2796 37.8556 35.3154 40.0107C36.3511 42.1659 37.8607 44.059 39.7313 45.5484L43.4766 48.5484C43.6429 48.6815 43.8495 48.7541 44.0625 48.7541C44.2755 48.7541 44.4822 48.6815 44.6485 48.5484L48.3938 45.5484C50.2643 44.059 51.774 42.1659 52.8097 40.0107C53.8455 37.8556 54.3806 35.4942 54.375 33.1031V27.1875C54.3752 27.0001 54.3192 26.817 54.2142 26.6617C54.1093 26.5065 53.9602 26.3862 53.7863 26.3165L44.4113 22.5665C44.1873 22.4775 43.9378 22.4775 43.7138 22.5665ZM52.5 27.8222V33.1031C52.5051 35.2127 52.0331 37.2962 51.1192 39.1976C50.2054 41.099 48.8734 42.7692 47.2229 44.0831L44.0625 46.6125L40.9022 44.0812C39.252 42.7675 37.9201 41.0976 37.0063 39.1966C36.0924 37.2955 35.6202 35.2124 35.625 33.1031V27.8222L44.0625 24.4472L52.5 27.8222Z" fill="#2F3235"/>
<path d="M6.5625 18.75H32.8125C33.0611 18.75 33.2996 18.6512 33.4754 18.4754C33.6512 18.2996 33.75 18.0611 33.75 17.8125V6.5625C33.75 6.31386 33.6512 6.0754 33.4754 5.89959C33.2996 5.72377 33.0611 5.625 32.8125 5.625H6.5625C6.31386 5.625 6.0754 5.72377 5.89959 5.89959C5.72377 6.0754 5.625 6.31386 5.625 6.5625V17.8125C5.625 18.0611 5.72377 18.2996 5.89959 18.4754C6.0754 18.6512 6.31386 18.75 6.5625 18.75ZM7.5 7.5H31.875V16.875H7.5V7.5Z" fill="#2F3235"/>
<path d="M27.1875 41.25H6.5625C6.31386 41.25 6.0754 41.3488 5.89959 41.5246C5.72377 41.7004 5.625 41.9389 5.625 42.1875V53.4375C5.625 53.6861 5.72377 53.9246 5.89959 54.1004C6.0754 54.2762 6.31386 54.375 6.5625 54.375H27.1875C27.4361 54.375 27.6746 54.2762 27.8504 54.1004C28.0262 53.9246 28.125 53.6861 28.125 53.4375V42.1875C28.125 41.9389 28.0262 41.7004 27.8504 41.5246C27.6746 41.3488 27.4361 41.25 27.1875 41.25ZM26.25 52.5H7.5V43.125H26.25V52.5Z" fill="#2F3235"/>
<path d="M5.625 23.4375H28.125V25.3125H5.625V23.4375Z" fill="#2F3235"/>
<path d="M5.625 29.0625H28.125V30.9375H5.625V29.0625Z" fill="#2F3235"/>
<path d="M5.625 34.6875H28.125V36.5625H5.625V34.6875Z" fill="#2F3235"/>
</svg>

<svg width="60" height="60" viewBox="0 0 60 60" fill="none" xmlns="http://www.w3.org/2000/svg"><path d="M57.557 23.513L45 18.133V7.5a.938.938 0 00-.275-.663L40.038 2.15a.938.938 0 00-.663-.275H4.687a2.813 2.813 0 00-2.812 2.813v50.624a2.812 2.812 0 002.813 2.813h37.5A2.812 2.812 0 0045 55.312v-2.33l4.88-3.482a19.725 19.725 0 008.245-16.024v-9.101a.938.938 0 00-.568-.862zM43.125 7.888v.55h-4.688V3.75h.55l4.138 4.138zm-.938 48.362h-37.5a.938.938 0 01-.937-.938V4.688a.937.937 0 01.938-.938h31.875v5.625a.938.938 0 00.937.938h5.625v7.82l-12.557 5.38a.938.938 0 00-.568.862v9.101A19.725 19.725 0 0038.244 49.5l4.881 3.482v2.33a.938.938 0 01-.938.938zM56.25 33.476a17.848 17.848 0 01-7.459 14.495l-4.728 3.377-4.73-3.375a17.847 17.847 0 01-7.458-14.497v-8.483l12.188-5.223 12.187 5.223v8.483z" fill="#2F3235"/><path d="M43.714 22.567l-9.375 3.75a.938.938 0 00-.589.87v5.916a15.862 15.862 0 005.981 12.445l3.746 3a.938.938 0 001.172 0l3.745-3a15.86 15.86 0 005.981-12.445v-5.916a.937.937 0 00-.589-.87l-9.375-3.75a.944.944 0 00-.697 0zm8.786 5.255v5.281a13.99 13.99 0 01-5.277 10.98l-3.16 2.53-3.16-2.532a13.991 13.991 0 01-5.278-10.978v-5.28l8.438-3.376 8.437 3.375zM6.563 18.75h26.25a.938.938 0 00.937-.938V6.563a.938.938 0 00-.938-.937H6.563a.937.937 0 00-.937.938v11.25a.937.937 0 00.938.937zM7.5 7.5h24.375v9.375H7.5V7.5zm19.688 33.75H6.563a.938.938 0 00-.938.938v11.25a.937.937 0 00.938.937h20.625a.938.938 0 00.937-.938v-11.25a.938.938 0 00-.938-.937zM26.25 52.5H7.5v-9.375h18.75V52.5zM5.625 23.438h22.5v1.875h-22.5v-1.875zm0 5.625h22.5v1.875h-22.5v-1.875zm0 5.625h22.5v1.874h-22.5v-1.874z" fill="#2F3235"/></svg>
